svgs/sharp-light/vault.svg

<svg xmlns="http://www.w3.org/2000/svg" viewBox="0 0 576 512"><!--! Font Awesome Pro 6.6.0 by @fontawesome - https://fontawesome.com License - https://fontawesome.com/license (Commercial License) Copyright 2024 Fonticons, Inc. --><path d="M32 32l0 416 512 0 0-416L32 32zM0 0L32 0 544 0l32 0 0 32 0 416 0 32-32 0-32 0 0 16 0 16-32 0 0-16 0-16L96 480l0 16 0 16-32 0 0-16 0-16-32 0L0 480l0-32L0 32 0 0zM352 240A128 128 0 1 0 96 240a128 128 0 1 0 256 0zM64 240a160 160 0 1 1 320 0A160 160 0 1 1 64 240zm160 32a32 32 0 1 0 0-64 32 32 0 1 0 0 64zm0-96a64 64 0 1 1 0 128 64 64 0 1 1 0-128zm256 0a16 16 0 1 0 -32 0 16 16 0 1 0 32 0zm32 0c0 20.9-13.4 38.7-32 45.3L480 336l0 16-32 0 0-16 0-114.7c-18.6-6.6-32-24.4-32-45.3c0-26.5 21.5-48 48-48s48 21.5 48 48z"/></svg>

<svg xmlns="http://www.w3.org/2000/svg" viewBox="0 0 576 512"><!--! Font Awesome Pro 6.4.0 by @fontawesome - https://fontawesome.com License - https://fontawesome.com/license (Commercial License) Copyright 2023 Fonticons, Inc. --><path d="M32 32V448H544V32H32zM0 0H32 544h32V32 448v32H544 512v16 16H480V496 480H96v16 16H64V496 480H32 0V448 32 0zM352 240A128 128 0 1 0 96 240a128 128 0 1 0 256 0zM64 240a160 160 0 1 1 320 0A160 160 0 1 1 64 240zm160 32a32 32 0 1 0 0-64 32 32 0 1 0 0 64zm0-96a64 64 0 1 1 0 128 64 64 0 1 1 0-128zm256 0a16 16 0 1 0 -32 0 16 16 0 1 0 32 0zm32 0c0 20.9-13.4 38.7-32 45.3V336v16H448V336 221.3c-18.6-6.6-32-24.4-32-45.3c0-26.5 21.5-48 48-48s48 21.5 48 48z"/></svg>
